Icons/com_untappdllc_app.svg

<svg viewBox="0 0 48 48" xmlns:xlink="http://www.w3.org/1999/xlink">
 <defs>
  <linearGradient id="0">
   <stop stop-opacity="0"/>
   <stop offset="1"/>
  </linearGradient>
  <linearGradient xlink:href="#0" id="1" gradientUnits="userSpaceOnUse" gradientTransform="translate(4e-7,-48)" y1="47" x2="0" y2="1"/>
  <clipPath id="2">
   <g transform="translate(0,-1004.3622)">
    <rect rx="4" y="1005.36" x="1" height="46" width="46" fill="#1890d0"/>
   </g>
  </clipPath>
  <clipPath id="3">
   <g transform="translate(0,-1004.3622)">
    <rect rx="4" y="1005.36" x="1" height="46" width="46" fill="#1890d0"/>
   </g>
  </clipPath>
 </defs>
 <g>
  <g transform="translate(0,-1004.3622)">
   <path d="m 5,1006.3622 c -2.216,0 -4,1.784 -4,4 l 0,37.25 c 0,2.216 1.784,4 4,4 l 38,0 c 2.216,0 4,-1.784 4,-4 l 0,-37.25 c 0,-2.216 -1.784,-4 -4,-4 l -38,0 z m -4,41.5 0,0.5 c 0,2.216 1.784,4 4,4 l 38,0 c 2.216,0 4,-1.784 4,-4 l 0,-0.5 c 0,2.216 -1.784,4 -4,4 l -38,0 c -2.216,0 -4,-1.784 -4,-4 z" opacity="0.02"/>
   <path d="m 1,1047.6122 0,0.25 c 0,2.216 1.784,4 4,4 l 38,0 c 2.216,0 4,-1.784 4,-4 l 0,-0.25 c 0,2.216 -1.784,4 -4,4 l -38,0 c -2.216,0 -4,-1.784 -4,-4 z" opacity="0.05"/>
   <rect width="46" height="46" x="1" y="1005.61" rx="4" opacity="0.1"/>
  </g>
 </g>
 <g>
  <g transform="translate(0,-1004.3622)">
   <rect rx="4" y="1005.36" x="1" height="46" width="46" fill="#edea43"/>
  </g>
 </g>
 <g>
  <rect transform="scale(1,-1)" width="46" height="46" x="1" y="-46.998" rx="4" opacity="0.1" fill="url(#1)"/>
 </g>
 <g>
  <g clip-path="url(#2)">
   <g opacity="0.1">
    <g>
     <path d="M 28.257812 36.949219 C 29.351562 37.359375 34.957031 35.203125 35.082031 34.511719 C 35.394531 34.101562 34.976562 33.238281 34.976562 33.238281 L 30.867188 21.625 C 30.28125 20.183594 28.378906 19.921875 27.988281 19.019531 L 25.230469 13.140625 C 25.792969 12.671875 25.007812 12.058594 24.800781 11.835938 C 25.019531 11.226562 24.578125 11.339844 24.460938 11.300781 C 23.261719 11.636719 22.722656 11.847656 21.476562 12.402344 C 21.476562 12.402344 21.105469 12.902344 21.671875 12.960938 C 21.84375 13.082031 21.210938 14.285156 22.167969 14.265625 L 23.824219 20.613281 C 24.035156 21.710938 22.914062 22.757812 23.273438 24.148438 L 27.804688 36.269531 C 27.804688 36.269531 28.011719 36.839844 28.257812 36.945312 Z M 28.257812 36.949219 "/>
     <path d="M 13.039062 33.941406 C 13.609375 34.960938 19.289062 36.910156 19.832031 36.460938 C 20.332031 36.347656 20.566406 35.417969 20.566406 35.417969 L 24.882812 23.878906 C 25.359375 22.398438 24.070312 20.976562 24.351562 20.035156 L 26.019531 13.757812 C 26.75 13.761719 26.542969 12.785156 26.527344 12.480469 C 27.085938 12.15625 26.679688 11.957031 26.613281 11.851562 C 25.480469 11.339844 24.929688 11.15625 23.617188 10.777344 C 23.617188 10.777344 23.015625 10.925781 23.410156 11.332031 C 23.460938 11.535156 22.207031 12.050781 22.949219 12.652344 L 20.140625 18.578125 C 19.597656 19.554688 18.0625 19.632812 17.445312 20.933594 L 13.125 33.128906 C 13.125 33.128906 12.917969 33.699219 13.039062 33.941406 Z M 13.039062 33.941406 "/>
    </g>
   </g>
  </g>
 </g>
 <g>
  <g clip-path="url(#3)">
   <g transform="translate(0,-1)">
    <g>
     <path d="M 28.257812 36.949219 C 29.351562 37.359375 34.957031 35.203125 35.082031 34.511719 C 35.394531 34.101562 34.976562 33.238281 34.976562 33.238281 L 30.867188 21.625 C 30.28125 20.183594 28.378906 19.921875 27.988281 19.019531 L 25.230469 13.140625 C 25.792969 12.671875 25.007812 12.058594 24.800781 11.835938 C 25.019531 11.226562 24.578125 11.339844 24.460938 11.300781 C 23.261719 11.636719 22.722656 11.847656 21.476562 12.402344 C 21.476562 12.402344 21.105469 12.902344 21.671875 12.960938 C 21.84375 13.082031 21.210938 14.285156 22.167969 14.265625 L 23.824219 20.613281 C 24.035156 21.710938 22.914062 22.757812 23.273438 24.148438 L 27.804688 36.269531 C 27.804688 36.269531 28.011719 36.839844 28.257812 36.945312 Z M 28.257812 36.949219 " fill="#634520"/>
     <path d="M 13.039062 33.941406 C 13.609375 34.960938 19.289062 36.910156 19.832031 36.460938 C 20.332031 36.347656 20.566406 35.417969 20.566406 35.417969 L 24.882812 23.878906 C 25.359375 22.398438 24.070312 20.976562 24.351562 20.035156 L 26.019531 13.757812 C 26.75 13.761719 26.542969 12.785156 26.527344 12.480469 C 27.085938 12.15625 26.679688 11.957031 26.613281 11.851562 C 25.480469 11.339844 24.929688 11.15625 23.617188 10.777344 C 23.617188 10.777344 23.015625 10.925781 23.410156 11.332031 C 23.460938 11.535156 22.207031 12.050781 22.949219 12.652344 L 20.140625 18.578125 C 19.597656 19.554688 18.0625 19.632812 17.445312 20.933594 L 13.125 33.128906 C 13.125 33.128906 12.917969 33.699219 13.039062 33.941406 Z M 13.039062 33.941406 " fill="#369c20"/>
    </g>
   </g>
  </g>
 </g>
 <g>
  <g transform="translate(0,-1004.3622)">
   <path d="m 1,1043.3622 0,4 c 0,2.216 1.784,4 4,4 l 38,0 c 2.216,0 4,-1.784 4,-4 l 0,-4 c 0,2.216 -1.784,4 -4,4 l -38,0 c -2.216,0 -4,-1.784 -4,-4 z" opacity="0.1"/>
  </g>
 </g>
</svg>

<svg viewBox="0 0 48 48"><defs><linearGradient id="linearGradient3764" x1="1" x2="47" gradientUnits="userSpaceOnUse" gradientTransform="translate(-48.000001,0.00221467)"><stop stop-color="#ebe931" stop-opacity="1"/><stop offset="1" stop-color="#edea43" stop-opacity="1"/></linearGradient><clipPath id="clipPath-661843193"><g transform="translate(0,-1004.3622)"><rect rx="4" y="1005.36" x="1" height="46" width="46" fill="#1890d0"/></g></clipPath><clipPath id="clipPath-691187795"><g transform="translate(0,-1004.3622)"><rect rx="4" y="1005.36" x="1" height="46" width="46" fill="#1890d0"/></g></clipPath></defs><g><path d="m 1 43 l 0 0.25 c 0 2.216 1.784 4 4 4 l 38 0 c 2.216 0 4 -1.784 4 -4 l 0 -0.25 c 0 2.216 -1.784 4 -4 4 l -38 0 c -2.216 0 -4 -1.784 -4 -4 z m 0 0.5 l 0 0.5 c 0 2.216 1.784 4 4 4 l 38 0 c 2.216 0 4 -1.784 4 -4 l 0 -0.5 c 0 2.216 -1.784 4 -4 4 l -38 0 c -2.216 0 -4 -1.784 -4 -4 z" opacity="0.02"/><path d="m 1 43.25 l 0 0.25 c 0 2.216 1.784 4 4 4 l 38 0 c 2.216 0 4 -1.784 4 -4 l 0 -0.25 c 0 2.216 -1.784 4 -4 4 l -38 0 c -2.216 0 -4 -1.784 -4 -4 z" opacity="0.05"/><path d="m 1 43 l 0 0.25 c 0 2.216 1.784 4 4 4 l 38 0 c 2.216 0 4 -1.784 4 -4 l 0 -0.25 c 0 2.216 -1.784 4 -4 4 l -38 0 c -2.216 0 -4 -1.784 -4 -4 z" opacity="0.1"/></g><g><rect width="46" height="46" x="-47" y="1" rx="4" transform="matrix(0,-1,1,0,0,0)" fill="url(#linearGradient3764)" fill-opacity="1"/></g><g><g clip-path="url(#clipPath-661843193)"><g opacity="0.1"><!-- color: #edea43 --><g><path d="m 28.26 36.949 c 1.094 0.41 6.699 -1.746 6.824 -2.438 c 0.313 -0.41 -0.105 -1.273 -0.105 -1.273 l -4.109 -11.613 c -0.586 -1.441 -2.488 -1.703 -2.879 -2.605 l -2.758 -5.879 c 0.563 -0.469 -0.223 -1.082 -0.43 -1.305 c 0.219 -0.609 -0.223 -0.496 -0.34 -0.535 c -1.199 0.336 -1.738 0.547 -2.984 1.102 c 0 0 -0.371 0.5 0.195 0.559 c 0.172 0.121 -0.461 1.324 0.496 1.305 l 1.656 6.348 c 0.211 1.098 -0.91 2.145 -0.551 3.535 l 4.531 12.12 c 0 0 0.207 0.57 0.453 0.676 m 0 0.004" fill="#000"/><path d="m 13.04 33.941 c 0.57 1.02 6.25 2.969 6.793 2.52 c 0.5 -0.113 0.734 -1.043 0.734 -1.043 l 4.316 -11.539 c 0.477 -1.48 -0.813 -2.902 -0.531 -3.844 l 1.668 -6.277 c 0.73 0.004 0.523 -0.973 0.508 -1.277 c 0.559 -0.324 0.152 -0.523 0.086 -0.629 c -1.133 -0.512 -1.684 -0.695 -2.996 -1.074 c 0 0 -0.602 0.148 -0.207 0.555 c 0.051 0.203 -1.203 0.719 -0.461 1.32 l -2.809 5.926 c -0.543 0.977 -2.078 1.055 -2.695 2.355 l -4.32 12.195 c 0 0 -0.207 0.57 -0.086 0.813 m 0 0" fill="#000"/></g></g></g></g><g><g clip-path="url(#clipPath-691187795)"><g transform="translate(0,-1)"><!-- color: #edea43 --><g><path d="m 28.26 36.949 c 1.094 0.41 6.699 -1.746 6.824 -2.438 c 0.313 -0.41 -0.105 -1.273 -0.105 -1.273 l -4.109 -11.613 c -0.586 -1.441 -2.488 -1.703 -2.879 -2.605 l -2.758 -5.879 c 0.563 -0.469 -0.223 -1.082 -0.43 -1.305 c 0.219 -0.609 -0.223 -0.496 -0.34 -0.535 c -1.199 0.336 -1.738 0.547 -2.984 1.102 c 0 0 -0.371 0.5 0.195 0.559 c 0.172 0.121 -0.461 1.324 0.496 1.305 l 1.656 6.348 c 0.211 1.098 -0.91 2.145 -0.551 3.535 l 4.531 12.12 c 0 0 0.207 0.57 0.453 0.676 m 0 0.004" fill="#634520"/><path d="m 13.04 33.941 c 0.57 1.02 6.25 2.969 6.793 2.52 c 0.5 -0.113 0.734 -1.043 0.734 -1.043 l 4.316 -11.539 c 0.477 -1.48 -0.813 -2.902 -0.531 -3.844 l 1.668 -6.277 c 0.73 0.004 0.523 -0.973 0.508 -1.277 c 0.559 -0.324 0.152 -0.523 0.086 -0.629 c -1.133 -0.512 -1.684 -0.695 -2.996 -1.074 c 0 0 -0.602 0.148 -0.207 0.555 c 0.051 0.203 -1.203 0.719 -0.461 1.32 l -2.809 5.926 c -0.543 0.977 -2.078 1.055 -2.695 2.355 l -4.32 12.195 c 0 0 -0.207 0.57 -0.086 0.813 m 0 0" fill="#369c20"/></g></g></g></g><g><g transform="translate(0,-1004.3622)"><path d="m 1 1043.36 0 4 c 0 2.216 1.784 4 4 4 l 38 0 c 2.216 0 4 -1.784 4 -4 l 0 -4 c 0 2.216 -1.784 4 -4 4 l -38 0 c -2.216 0 -4 -1.784 -4 -4 z" opacity="0.1"/></g></g></svg>
